X:1
T:If Ye Love Me
T:Thomas Tallis (1505-1585)
T:St. John 14, 15-17
T:Layout by C. Höcker - May 2019 - CC0
T:Layout by C. Höcker - May 2019 - CC0
Z:Layout by C. Höcker - May 2019 - CC0
%%score [ 1 2 3 4 ]
L:1/8
M:4/4
K:F
V:1 treble nm="Soprano"
V:2 treble nm="Alto"
V:3 treble-8 nm="Tenore"
V:4 bass nm="Basso"
V:1
 F6 F2 | G4 A4- | A2 A2 G2 F2 | B4 A4 | z2 A2 A2 A2 | c4 B2 (A2- | AB G2) A4 | z8 | z2 G2 F2 F2 | %9
w: If ye|love me,|_ keep my com-|mand- ments,|and I will|pray the Fa-|* * * ther||and He  shall|
 B6 A2- | A2 F2 A2 G2- | G2 F4 E2 | F4 z4 |: z8 | z8 | z2 F2 c4- | c2 B2 A2 G2 | F2 A2 G4 | G4 z4 | %19
w: give you|_ a- no- ther|_ Com- fort-|er,|||that he|_ may 'bide with|you for ev-|er,|
 z8 | z2 c4 F2 | c2 B2 A4 | G2 F2 E2 D2 | C2 F4 C2 | D2 (B,2 C4) |1 C4 z4 :|2 C8 |] %27
w: |ev'n the|Spirit of truth,|ev'n the Spirit of|truth, ev'n the|Spirit of _|truth|truth.|
V:2
 C6 D2 | E4 F4- | F2 F2 E2 D2 | F4 F4- | F4 z4 | z8 | z2 D2 D2 D2 | F4 E2 (D2- | D2 C2) D2 D2 | %9
w: If ye|love me,|_ keep my com-|mand- ments,|_||and I will|pray the Fa-|* * ther and|
 B,2 B,2 F4 | F2 C2 F2 E2 | (D2 B,2 C3) C | C4 z4 |: z4 F4 | B6 A2 | G2 F2 F2 E2 | F4 F2 C2 | %17
w: he shall give|you a- no- ther|Com- * * fort-|er|that|he may|'bide with you for|ev- er, with|
 D2 D2 D4 | E4 E4 | E2 A4 (G2- | GF) F2 z2 F2- | F2 B,2 F2 F2 | E2 c4 F2 | c2 B2 A2 G2- | %24
w: you for ev-|er, ev'n|the Spirit of|_ _ truth, ev'n|_ the  Spirit of|truth, ev'n the|Spirit of truth, ev'n|
 GF F4 E2 |1 F4 z4 :|2 F8 |] %27
w: _ the  Spirit of|truth|truth.|
V:3
 A6 F2 | c4 c4- | c2 c2 c2 A2 | d4 c4- | c4 z2 A2 | A2 A2 d3 c | B4 A4- | A4 z4 | z4 z2 B2 | %9
w: If ye|love me,|_ keep my com-|mand- ments|_ and|I will  pray the|Fa- ther,|_|and|
 G2 G2 d4 | c2 A2 (c4 | BA) F2 G3 G | F4 c4 |: f6 e2 | d2 c2 B2 c2 | (c2 A2) G2 G2 | A2 d2 c2 G2 | %17
w: he shall give|you a- no-|* * ther  Com- fort-|er, that|he may|'bide with you for|ev- * er, that|he may bide with|
 A2 A2 =B4 | c2 g4 c2 | g2 f2 e2 d2 | c8 | A2 d4 c2- | c2 F2 c2 B2 | A2 d2 c2 G2 | A2 F2 G2 G2 |1 %25
w: you for ev-|er,  ev'n the|Spirit of truth, the|Spirit|of truth ev'n|_ the Spirit of|truth, the Spirit of|truth, the Spirit of|
 A4 c4 :|2 A8 |] %27
w: truth, that|truth.|
V:4
 F,6 D,2 | C,4 F,4- | F,2 F,2 C,2 D,2 | B,,4 F,4- | F,8 | z8 | z4 D,4 | D,2 D,2 G,3 F, | E,4 D,4 | %9
w: If ye|love me,|_ keep my com-|mand- ments|_||and|I will  pray the|Fa- ther,|
 z2 G,2 D,2 D,2 | F,4 F,2 C,2 | D,2 D,2 C,2 C,2 | F,4 z4 |: F,4 B,4- | B,2 A,2 G,2 F,2 | %15
w: and he shall|give you a-|no- ther Com- fort-|er,|that he|_ may 'bide with|
 E,2 F,2 C,4 | F,2 F,2 F,2 E,2 | D,2 D,2 G,4 | C,4 z2 C2- | C2 F,2 C2 B,2 | A,4 F,2 A,2- | %21
w: you for ev-|er, may 'bide with|you for ev-|er, ev'n|_ the Spirit of|truth, the Spirit|
 A,(F, G,2) F,4 | z4 z2 F,2- | F,2 B,,2 F,2 E,2 | D,2 D,2 C,2 C,2 |1 F,4 z4 :|2 F,8 |] %27
w: _ of _ truth|ev'n|_ the Spirit of|truth, the Spirit of|truth|truth.|

